src/icons/svg/article.svg

<?xml version="1.0" standalone="no"?><!DOCTYPE svg PUBLIC "-//W3C//DTD SVG 1.1//EN" "http://www.w3.org/Graphics/SVG/1.1/DTD/svg11.dtd"><svg t="1628153249444" class="icon" viewBox="0 0 1024 1024" version="1.1" xmlns="http://www.w3.org/2000/svg" p-id="6338" xmlns:xlink="http://www.w3.org/1999/xlink" width="128" height="128"><defs><style type="text/css">@font-face { font-family: element-icons; src: url("chrome-extension://dkbiiofameebehokbgjmdcholafphbnl/fonts/element-icons.woff") format("woff"), url("chrome-extension://dkbiiofameebehokbgjmdcholafphbnl/fonts/element-icons.ttf ") format("truetype"); }
</style></defs><path d="M767.87712 95.01184 240.75776 95.01184c-72.67328 0-131.77856 58.10176-131.77856 129.49504l0 597.6064c0 71.38816 59.10016 129.49504 131.77856 129.49504l527.11424 0c72.64768 0 131.77856-58.10688 131.77856-129.49504L899.65056 224.50688C899.65568 153.1136 840.5248 95.01184 767.87712 95.01184zM294.46144 301.88544l227.23584 0c16.7936 0 30.40256 13.35296 30.40256 29.88544 0 16.47104-13.60896 29.85984-30.40256 29.85984L294.46144 361.63072c-16.78848 0-30.40256-13.38368-30.40256-29.85984C264.05888 315.2384 277.66784 301.88544 294.46144 301.88544zM724.41344 755.00544 294.46144 755.00544c-16.78848 0-30.40256-13.38368-30.40256-29.89056 0-16.50176 13.60896-29.89056 30.40256-29.89056l429.95712 0c16.7936 0 30.4384 13.3888 30.4384 29.89056C754.85696 741.62176 741.21216 755.00544 724.41344 755.00544zM724.41344 558.33088 294.46144 558.33088c-16.78848 0-30.40256-13.37856-30.40256-29.88544s13.60896-29.89056 30.40256-29.89056l429.95712 0c16.7936 0 30.4384 13.38368 30.4384 29.89056S741.21216 558.33088 724.41344 558.33088z" p-id="6339"></path></svg>

<svg class="icon" viewBox="0 0 1024 1024" xmlns="http://www.w3.org/2000/svg" width="128" height="128"><defs><style>@font-face{font-family:element-icons;src:url(chrome-extension://dkbiiofameebehokbgjmdcholafphbnl/fonts/element-icons.woff) format(&quot;woff&quot;),url(&quot;chrome-extension://dkbiiofameebehokbgjmdcholafphbnl/fonts/element-icons.ttf &quot;) format(&quot;truetype&quot;)}</style></defs><path d="M767.877 95.012h-527.12c-72.673 0-131.778 58.102-131.778 129.495v597.606c0 71.388 59.1 129.495 131.779 129.495h527.114c72.648 0 131.779-58.107 131.779-129.495V224.507c.005-71.393-59.126-129.495-131.774-129.495zM294.461 301.885h227.236c16.794 0 30.403 13.353 30.403 29.886 0 16.47-13.61 29.86-30.403 29.86H294.461c-16.788 0-30.402-13.384-30.402-29.86 0-16.533 13.609-29.886 30.402-29.886zm429.952 453.12H294.461c-16.788 0-30.402-13.383-30.402-29.89 0-16.502 13.609-29.89 30.402-29.89H724.42c16.793 0 30.438 13.388 30.438 29.89 0 16.507-13.645 29.89-30.444 29.89zm0-196.674H294.461c-16.788 0-30.402-13.379-30.402-29.886s13.609-29.89 30.402-29.89H724.42c16.793 0 30.438 13.384 30.438 29.89s-13.645 29.886-30.444 29.886z"/></svg>
